X: 181
T: Johnny Lad
M:4/4
R:polka
L:1/8
Z:Alf Warnock - alf0@rogers.com
K:F
A|"F"AFFF CFFF|"Bb"EDD2 D3G|"C7"GABG EEED|C^CDB, "F"A,2A,B,|
"F"C2FG A2GF|"Bb"G2GF D3"*"F|"C7"G3/2A/2BG EEED|C^CDE "F"F4|]
%%text * play the last two bars as intro

